svg/fluentui-system-icons/ic_fluent_chat_12_regular.svg

<svg width="12" height="12" viewBox="0 0 12 12" fill="none" xmlns="http://www.w3.org/2000/svg">
<path d="M4.00001 5.5C4.00001 5.22386 4.22387 5 4.50001 5H7.50001C7.77616 5 8.00001 5.22386 8.00001 5.5C8.00001 5.77614 7.77616 6 7.50001 6H4.50001C4.22387 6 4.00001 5.77614 4.00001 5.5ZM4.50001 7C4.22387 7 4.00001 7.22386 4.00001 7.5C4.00001 7.77614 4.22387 8 4.50001 8H6.50001C6.77615 8 7.00001 7.77614 7.00001 7.5C7.00001 7.22386 6.77615 7 6.50001 7H4.50001ZM1.00001 6C1.00001 3.23858 3.23859 1 6.00001 1C8.76144 1 11 3.23858 11 6C11 8.76142 8.76144 11 6.00001 11C5.12733 11 4.30568 10.776 3.59074 10.3822L1.64559 10.9742C1.46894 11.028 1.27703 10.98 1.14646 10.8494C1.01589 10.7189 0.967911 10.5269 1.02168 10.3503L1.61434 8.40297C1.22268 7.68951 1.00001 6.87012 1.00001 6ZM6.00001 2C3.79087 2 2.00001 3.79086 2.00001 6C2.00001 6.7629 2.2131 7.4745 2.58274 8.08026C2.65706 8.20205 2.67581 8.34979 2.63427 8.48629L2.25131 9.74457L3.50785 9.36215C3.6446 9.32053 3.79262 9.33943 3.91453 9.41407C4.52142 9.78569 5.23493 10 6.00001 10C8.20915 10 10 8.20914 10 6C10 3.79086 8.20915 2 6.00001 2Z" fill="#212121"/>
</svg>

<svg xmlns="http://www.w3.org/2000/svg" width="12" height="12"><path d="M4 5.5a.5.5 0 0 1 .5-.5h3a.5.5 0 1 1 0 1h-3a.5.5 0 0 1-.5-.5ZM4.5 7a.5.5 0 0 0 0 1h2a.5.5 0 0 0 0-1h-2ZM1 6a5 5 0 1 1 2.59 4.382l-1.944.592a.5.5 0 0 1-.624-.624l.592-1.947A4.98 4.98 0 0 1 1 6Zm5-4a4 4 0 0 0-3.417 6.08.5.5 0 0 1 .051.406l-.383 1.259 1.257-.383a.5.5 0 0 1 .407.052A4 4 0 1 0 6 2Z"/></svg>
